X:1
T:Knightswood, CMD
T:Knightswood, CMD
T:F. H. Hutchins
T:Public Domain Courtesy of the Cyber Hymnal™
C:F. H. Hutchins
Z:Public Domain
Z:Courtesy of the Cyber Hymnal™
%%score ( 1 2 ) ( 3 4 )
L:1/8
Q:1/4=108
M:4/4
K:Ab
V:1 treble 
V:2 treble 
V:3 bass 
V:4 bass 
V:1
!p! E2 | [Ec]3 [Ec] [EB]2 [EA]2 | [EA]2 [EG]2 !fermata![EB]3 E | [Gd]3 [Gd] [Ac]2 [GB]2 | %4
 [Ae]6!mf! ([Ac][Gd]) | [Ae]3 [Ae] [Ad]2 [Ac]2 | [Fc]2 [FB]2 [FB]2 [F=B]2 | %7
 [Ec]3 [Ec] [Ac]2 [GB]2 | [EA]6 [EA]2 | [FA]3 [FA] [FB]2 [FB]2 | [F=B]3 [FB] [Ec]4 | %11
 [Fc]2 [EF][EF] [Fc]3 [Fc] | [Fd]6!<(! [Gd]2 | [Gd]3!<)! [Gc] [GB]3 [Ge] | %14
 [Ae]3 [Ac] [EA]2!ff! [Af]2 |"^riten." [Ae]3 [Ae] [Ge]3 [EG] | !fermata![EA]6 x2 |] x6 |] %18
V:2
 E2 | x8 | x7 E | x8 | x8 | x8 | x8 | x8 | x8 | x8 | x8 | x8 | x8 | x8 | x8 | x8 | x8 |] x6 |] %18
V:3
 E,2 | [A,,A,]3 [A,,A,] [A,,A,]2 [C,A,]2 | [E,C]2 [E,B,]2 !fermata![E,D]3 E, | %3
 [E,B,]3 [E,B,] [E,C]2 [E,D]2 | [A,C]6 ([A,E][B,E]) | [CE]3 [A,E] [A,F]2 [A,E]2 | %6
 [D,D]2 [D,D]2 [D,D]2 [D,D]2 | [E,A,]3 [E,C] [E,E]2 [E,D]2 | [A,C]6 [A,C]2 | %9
 [A,D]3 [A,D] [A,=D]2 [A,D]2 | [A,=D]3 [A,D] [A,C]4 | [=A,C]2 x6 | [A,C][A,C] [A,C]3 [A,C] x2 | %13
 B,6 [E,B,]2 | [E,B,]3 [E,D] [E,D]3 [E,B,] | [A,C]3 [A,E] [A,C]2 [D,D]2 | %16
 [E,C]3 [E,C] [E,B,]3 [E,B,] |] !fermata![A,,A,C]6 |] %18
V:4
 E,2 | x8 | x7 E, | x8 | x8 | x8 | x8 | x8 | x8 | x8 | x8 | x8 | x8 | B,6 x2 | x8 | x8 | x8 |] %17
 x6 |] %18

